X:21
T:Farmors Brudpolska
R:Polska
O:Sweden
M:3/4
C:e. Gyris Anders
A:\"Alvdalen
K:DDor
(3A2A2^c2 A>c|(3A2A2^c2 A>c|e2 g/a/g/e/ f>g|\
f>e d^c d>e|f2 f/a/f/d/ e>^c|
(3A2A2^c2 A>c|(3A2A2^c2 A>c|e2 g/a/g/e/ f>g|\
f>e d^c d>e|f2 f/a/f/d/ e^c|^c<d d4::
(3a2a2b2 a>g|e2 g/a/g/e/ f>d|\
(3a2a2c'2 a>g|e2 g/a/g/e/ f>g|\
f>e d^c de|f2 f/a/f/d/ e>^c|
(3A2A2^c2 A>c|(3A2A2^c2 A>c|\
e2 g/a/g/e/ f>g|f>e d^c d>e|\
f2 f/a/f/d/ e>^c|^c<d d4:|
